// Mary Had a Little Lamb - Structural Example

// Pure Strudel Notation
// .slow(4) means these 4 bars take 4 cycles to play
// .clip(1) means it plays exactly once and stops


note(`
  [e4 d4 c4 d4] 
  [e4 e4 e4 ~] 
  [d4 d4 d4 ~] 
  [e4 g4 g4 ~] 
  [e4 d4 c4 d4] 
  [e4 e4 e4 ~ ] 
  [d4 d4 e4 d4 ] 
  [c4 ~ ~ ~]
`)
.s("piano")
.lpf(2000)
.gain(0.8)
.slow(5)
.clip(1.5)


